public/images/Walmart Logo.svg

<svg width="112" height="26" viewBox="0 0 112 26" fill="none" xmlns="http://www.w3.org/2000/svg">
<g clip-path="url(#clip0_2_161)">
<path d="M40.0019 9.2479V10.7214H40.047C40.5772 9.93248 41.4574 9.0034 43.4084 9.0034C44.9262 9.0034 46.0906 9.776 46.5896 10.943H46.6347C47.0609 10.353 47.5495 9.9064 48.097 9.59019C48.7451 9.2153 49.4659 9.00014 50.3738 9.00014C52.4288 9.00014 54.2481 10.3367 54.2481 13.7074V20.1001H51.1154V14.1541C51.1154 12.4459 50.4986 11.4581 49.2164 11.4581C48.2773 11.4581 47.5946 12.0514 47.3347 12.7816C47.2446 13.0326 47.203 13.3749 47.203 13.6618V20.1034H44.0703V13.9128C44.0703 12.4622 43.4777 11.4549 42.2128 11.4549C41.2009 11.4549 40.5668 12.2046 40.3069 12.8468C40.196 13.1207 40.1613 13.4369 40.1613 13.7335V20.1001H37.0251V9.2479H40.0019ZM70.4176 9.2479V11.2951H70.5042C71.0795 9.73036 72.4448 9.0034 73.6439 9.0034C73.9454 9.0034 74.1117 9.02622 74.3543 9.07186V11.9145C74.0666 11.8754 73.7998 11.8363 73.4255 11.8363C72.0671 11.8363 71.1211 12.5795 70.882 13.7433C70.83 13.9845 70.8126 14.2453 70.8126 14.5452V20.1034H67.5968V9.2479H70.4176ZM78.7206 5.65222V9.0686H81.4375V11.833H78.7206V15.9111C78.7206 17.2314 79.0776 17.8703 80.138 17.8703C80.637 17.8703 81.0043 17.8117 81.3231 17.7367L81.3647 20.0284C80.9385 20.1784 80.0306 20.3414 79.1088 20.3414C78.0241 20.3414 77.1196 19.986 76.5686 19.4351C75.938 18.8059 75.6469 17.7758 75.6469 16.3089V5.65222H78.7206ZM34.842 20.1001H31.7231V5.65222H34.842V20.1001ZM26.525 16.2241C26.525 16.4229 26.5077 16.6316 26.4488 16.8109C26.2062 17.5639 25.378 18.1996 24.3453 18.1996C23.4824 18.1996 22.7963 17.74 22.7963 16.7652C22.7963 15.2755 24.5428 14.8615 26.5285 14.8712V16.2241H26.525ZM29.6404 13.6259C29.6404 11.1647 28.5246 9.0034 24.7508 9.0034C22.8136 9.0034 21.275 9.51521 20.4364 9.9716L21.0497 11.9471C21.8156 11.4907 23.0389 11.1158 24.1963 11.1158C26.1127 11.1126 26.4245 12.1362 26.4245 12.7914V12.9479C22.2487 12.9414 19.6116 14.3007 19.6116 17.0717C19.6116 18.7636 20.9527 20.3479 23.2884 20.3479C24.7265 20.3479 25.9255 19.81 26.6463 18.9461H26.7156C26.7156 18.9461 27.1939 20.8206 29.8206 20.1034C29.682 19.321 29.6369 18.4897 29.6369 17.4889V13.6259H29.6404ZM3.94459 5.65222C4.26687 7.18112 5.18173 11.6211 5.18173 11.6211C5.56639 13.4467 5.91986 15.3602 6.1867 16.8728H6.23521C6.49511 15.2657 6.90403 13.7433 7.34067 11.8591L8.88276 5.65222H12.2962L13.7378 12.0188C14.1155 13.7889 14.417 15.1548 14.6561 16.8011H14.7011C14.961 15.1385 15.3007 13.7172 15.6715 11.8982L17.0576 5.65222H20.3324L16.2744 20.1001C13.6893 20.6315 12.6982 19.6535 12.3447 18.1018C11.9912 16.5468 11.2981 13.5901 11.2981 13.5901C10.9412 11.9699 10.664 10.829 10.4699 9.1664H10.4214C10.1442 10.8127 9.85307 11.9667 9.42336 13.5868L7.72186 20.1034C5.08124 20.5989 4.16638 19.8654 3.66043 17.8736C3.22379 16.1687 0.5 5.65548 0.5 5.65548H3.94459V5.65222ZM62.3987 16.2241C62.3987 16.4229 62.3814 16.6316 62.3224 16.8109C62.0799 17.5639 61.2516 18.1996 60.219 18.1996C59.3561 18.1996 58.6699 17.74 58.6699 16.7652C58.6699 15.2755 60.4165 14.8615 62.4022 14.8712V16.2241H62.3987ZM65.5141 13.6259C65.5141 11.1647 64.3982 9.0034 60.6244 9.0034C58.6873 9.0034 57.1486 9.51521 56.31 9.9716L56.9234 11.9471C57.6892 11.4907 58.9125 11.1158 60.07 11.1158C61.9828 11.1126 62.2982 12.1362 62.2982 12.7914V12.9479C58.1259 12.9414 55.4887 14.3007 55.4887 17.0717C55.4887 18.7636 56.8333 20.3479 59.1655 20.3479C60.6002 20.3479 61.8026 19.81 62.52 18.9461H62.5928C62.5928 18.9461 63.071 20.8206 65.6977 20.1034C65.5591 19.321 65.5141 18.4897 65.5141 17.4889V13.6259Z" fill="#041E42"/>
<path d="M94.0802 15.1241C94.3877 15.6517 94.3669 16.2406 94.0388 16.5096L88.3669 20.4276C87.7762 20.7646 86.8919 20.3561 86.3911 19.5017C85.8868 18.6439 85.9766 17.6874 86.5672 17.3504L92.8471 14.4705C93.2409 14.3208 93.7728 14.5965 94.0802 15.1241ZM101.545 15.1241C101.856 14.5965 102.384 14.3242 102.778 14.4671L109.061 17.3469C109.652 17.6839 109.738 18.6405 109.237 19.4983C108.733 20.3527 107.845 20.7578 107.258 20.4242L101.586 16.5062C101.262 16.2406 101.237 15.6483 101.545 15.1241ZM97.8108 17.2482C98.4291 17.2482 98.9369 17.5614 99.006 17.9733L99.6174 24.7745C99.6174 25.4485 98.8195 26 97.8143 26C96.8126 26 96.0112 25.4485 96.0112 24.7745L96.6191 17.9733C96.6882 17.5614 97.196 17.2482 97.8108 17.2482ZM101.586 9.49385L107.258 5.5724C107.845 5.2354 108.733 5.64048 109.237 6.4983C109.738 7.35611 109.652 8.31265 109.061 8.64965L102.778 11.5329C102.384 11.6758 101.852 11.4035 101.545 10.8759C101.237 10.3483 101.262 9.75936 101.586 9.49385ZM92.8471 11.5329L86.5672 8.64965C85.98 8.31265 85.8902 7.35611 86.3911 6.4983C86.8919 5.64048 87.7797 5.2354 88.3669 5.5724L94.0388 9.49385C94.3669 9.75596 94.3877 10.3483 94.0802 10.8759C93.7728 11.4035 93.2409 11.6758 92.8471 11.5329ZM96.6191 8.02671L96.0112 1.22545C96.0112 0.551453 96.8091 0 97.8143 0C98.8195 0 99.6174 0.551453 99.6174 1.22545L99.006 8.02671C98.9369 8.43519 98.4291 8.75177 97.8108 8.75177C97.196 8.75177 96.6882 8.43519 96.6191 8.02671ZM110.771 20.4004V20.2302H110.927C110.978 20.2302 111.013 20.2642 111.013 20.3153C111.013 20.3629 110.978 20.4004 110.927 20.4004H110.771ZM110.643 20.7101C110.643 20.7272 110.657 20.7442 110.678 20.7442H110.744C110.761 20.7442 110.778 20.7272 110.778 20.7101V20.5161H110.885L110.972 20.7203C110.978 20.734 110.989 20.7442 111.003 20.7442H111.082C111.106 20.7442 111.124 20.7203 111.113 20.6965C111.082 20.6352 111.051 20.5706 111.02 20.5059C111.072 20.4889 111.151 20.4378 111.151 20.3153C111.151 20.1859 111.044 20.111 110.937 20.111H110.678C110.661 20.111 110.643 20.128 110.643 20.1451V20.7101ZM110.364 20.4276C110.364 20.1519 110.592 19.9272 110.871 19.9272C111.151 19.9272 111.379 20.1485 111.379 20.4276C111.379 20.7033 111.155 20.928 110.871 20.928C110.588 20.928 110.364 20.7033 110.364 20.4276ZM110.243 20.4276C110.243 20.768 110.522 21.0471 110.871 21.0471C111.217 21.0471 111.5 20.768 111.5 20.4276C111.5 20.0872 111.217 19.8081 110.871 19.8081C110.522 19.8081 110.243 20.0872 110.243 20.4276Z" fill="#FFC124"/>
</g>
<defs>
<clipPath id="clip0_2_161">
<rect width="111" height="26" fill="white" transform="translate(0.5)"/>
</clipPath>
</defs>
</svg>

<svg xmlns="http://www.w3.org/2000/svg" width="112" height="26" fill="none"><g clip-path="url(#a)"><path fill="#041E42" d="M40.002 9.248v1.473h.045c.53-.789 1.41-1.718 3.361-1.718 1.518 0 2.683.773 3.182 1.94h.045c.426-.59.915-1.037 1.462-1.353.648-.375 1.369-.59 2.277-.59 2.055 0 3.874 1.337 3.874 4.707V20.1h-3.133v-5.946c0-1.708-.616-2.696-1.899-2.696-.939 0-1.621.593-1.881 1.324-.09.25-.132.593-.132.88v6.441H44.07v-6.19c0-1.45-.592-2.458-1.857-2.458-1.012 0-1.646.75-1.906 1.392-.111.274-.146.59-.146.886V20.1h-3.136V9.248h2.977Zm30.416 0v2.047h.086c.575-1.565 1.94-2.292 3.14-2.292.301 0 .468.023.71.069v2.843c-.287-.04-.554-.079-.928-.079-1.359 0-2.305.743-2.544 1.907-.052.242-.07.502-.07.802v5.558h-3.215V9.248h2.82Zm8.303-3.596V9.07h2.716v2.764h-2.716v4.078c0 1.32.357 1.96 1.417 1.96.499 0 .866-.06 1.185-.134l.042 2.291c-.426.15-1.334.313-2.256.313-1.085 0-1.99-.355-2.54-.906-.631-.63-.922-1.66-.922-3.126V5.652h3.074ZM34.842 20.1h-3.119V5.652h3.119V20.1Zm-8.317-3.876c0 .199-.017.408-.076.587-.243.753-1.071 1.389-2.104 1.389-.863 0-1.549-.46-1.549-1.435 0-1.49 1.747-1.904 3.733-1.894v1.353h-.004Zm3.115-2.598c0-2.461-1.115-4.623-4.89-4.623-1.936 0-3.475.512-4.314.969l.614 1.975c.766-.456 1.989-.831 3.146-.831 1.917-.003 2.228 1.02 2.228 1.675v.157c-4.175-.007-6.812 1.353-6.812 4.124 0 1.692 1.34 3.276 3.676 3.276 1.439 0 2.637-.538 3.358-1.402h.07s.478 1.875 3.105 1.157c-.139-.782-.184-1.613-.184-2.614v-3.863h.003ZM3.945 5.652c.322 1.53 1.237 5.97 1.237 5.97.384 1.825.738 3.738 1.005 5.25h.048c.26-1.606.669-3.129 1.106-5.013l1.542-6.207h3.413l1.442 6.367c.378 1.77.679 3.136.918 4.782h.045c.26-1.662.6-3.084.97-4.903l1.387-6.246h3.274L16.274 20.1c-2.585.531-3.576-.447-3.93-1.998a948.773 948.773 0 0 0-1.046-4.512c-.357-1.62-.634-2.761-.828-4.424h-.049c-.277 1.647-.568 2.8-.998 4.42l-1.701 6.517c-2.64.496-3.556-.238-4.062-2.23C3.224 16.17.5 5.656.5 5.656h3.445v-.003Zm58.454 10.572c0 .199-.018.408-.077.587-.242.753-1.07 1.389-2.103 1.389-.863 0-1.55-.46-1.55-1.435 0-1.49 1.748-1.904 3.733-1.894v1.353H62.4Zm3.115-2.598c0-2.461-1.116-4.623-4.89-4.623-1.937 0-3.475.512-4.314.969l.613 1.975c.766-.456 1.99-.831 3.147-.831 1.913-.003 2.228 1.02 2.228 1.675v.157c-4.172-.007-6.81 1.353-6.81 4.124 0 1.692 1.345 3.276 3.678 3.276 1.434 0 2.637-.538 3.354-1.402h.073s.478 1.875 3.105 1.157c-.139-.782-.184-1.613-.184-2.614v-3.863Z"/><path fill="#FFC124" d="M94.08 15.124c.308.528.287 1.117-.041 1.386l-5.672 3.918c-.59.337-1.475-.072-1.976-.926-.504-.858-.414-1.815.176-2.152l6.28-2.88c.394-.15.926.127 1.233.654Zm7.465 0c.311-.527.839-.8 1.233-.657l6.283 2.88c.591.337.677 1.293.176 2.151-.504.855-1.392 1.26-1.979.926l-5.672-3.918c-.324-.265-.349-.858-.041-1.382Zm-3.734 2.124c.618 0 1.126.313 1.195.725l.611 6.802c0 .674-.797 1.225-1.803 1.225-1.001 0-1.803-.552-1.803-1.226l.608-6.8c.07-.413.577-.726 1.192-.726Zm3.775-7.754 5.672-3.922c.587-.337 1.475.068 1.979.926.501.858.415 1.815-.176 2.152l-6.283 2.883c-.394.143-.926-.13-1.233-.657-.308-.528-.283-1.117.041-1.382Zm-8.739 2.039-6.28-2.883c-.587-.337-.677-1.294-.176-2.152.5-.858 1.389-1.263 1.976-.926l5.672 3.922c.328.262.349.854.041 1.382-.307.527-.84.8-1.233.657Zm3.772-3.506-.608-6.802C96.011.551 96.81 0 97.814 0c1.006 0 1.803.551 1.803 1.225l-.611 6.802c-.07.408-.577.725-1.195.725-.615 0-1.123-.317-1.192-.725ZM110.771 20.4v-.17h.156c.051 0 .086.034.086.085a.083.083 0 0 1-.086.085h-.156Zm-.128.31c0 .017.014.034.035.034h.066c.017 0 .034-.017.034-.034v-.194h.107l.087.204c.006.014.017.024.031.024h.079a.033.033 0 0 0 .031-.047 10.055 10.055 0 0 1-.093-.191.188.188 0 0 0 .131-.19c0-.13-.107-.205-.214-.205h-.259c-.017 0-.035.017-.035.034v.565Zm-.279-.282c0-.276.228-.5.507-.5.28 0 .508.22.508.5 0 .275-.224.5-.508.5a.502.502 0 0 1-.507-.5Zm-.121 0c0 .34.279.62.628.62.346 0 .629-.28.629-.62 0-.34-.283-.62-.629-.62a.624.624 0 0 0-.628.62Z"/></g><defs><clipPath id="a"><path fill="#fff" d="M.5 0h111v26H.5z"/></clipPath></defs></svg>
